ix/shuffle_outline.svg

<svg viewBox="0 0 24 24" fill="none" xmlns="http://www.w3.org/2000/svg" height="1em" width="1em">
  <path d="M5.56024 18.74C5.56024 18.74 5.55025 18.74 5.54025 18.74L2.99023 18.73C2.58023 18.73 2.24023 18.39 2.24023 17.98C2.24023 17.57 2.58023 17.23 2.99023 17.23L5.54025 17.24H5.55023C6.20023 17.24 6.81026 16.92 7.17026 16.37L13.5602 6.78998C14.2002 5.82998 15.2702 5.25 16.4302 5.25C16.4302 5.25 16.4403 5.25 16.4503 5.25L21.0002 5.27002C21.4102 5.27002 21.7502 5.61002 21.7502 6.02002C21.7502 6.43002 21.4102 6.77002 21.0002 6.77002L16.4503 6.75H16.4402C15.7902 6.75 15.1803 7.07 14.8203 7.62L8.43024 17.2C7.79024 18.17 6.72024 18.74 5.56024 18.74Z" fill="#292D32"/>
  <path d="M18.9995 20.7299C18.8095 20.7299 18.6195 20.6599 18.4695 20.5099C18.1795 20.2199 18.1795 19.7399 18.4695 19.4499L20.4695 17.4499C20.7595 17.1599 21.2395 17.1599 21.5295 17.4499C21.8195 17.7399 21.8195 18.2199 21.5295 18.5099L19.5295 20.5099C19.3795 20.6599 19.1895 20.7299 18.9995 20.7299Z" fill="#292D32"/>
  <path d="M8.89001 9.37976C8.66001 9.37976 8.43 9.26976 8.28 9.06976L7.20001 7.56976C6.83001 7.05976 6.21999 6.75977 5.60999 6.75977L3 6.76978C2.54 6.75978 2.25 6.43978 2.25 6.01978C2.25 5.60978 2.58 5.26978 3 5.26978L5.60999 5.25977C5.61999 5.25977 5.62 5.25977 5.63 5.25977C6.74001 5.25977 7.77999 5.79976 8.42999 6.68976L9.51001 8.18976C9.75001 8.52976 9.68 8.98975 9.34 9.23975C9.2 9.32975 9.05001 9.37976 8.89001 9.37976Z" fill="#292D32"/>
  <path d="M16.3195 18.7499C15.2595 18.7499 14.2395 18.2499 13.5895 17.4099L12.3695 15.84C12.1195 15.51 12.1795 15.0399 12.4995 14.7899C12.8295 14.5399 13.2995 14.5999 13.5495 14.9199L14.7695 16.4899C15.1395 16.9699 15.7295 17.2099 16.3195 17.2499L20.9895 17.2299C21.3995 17.2299 21.7395 17.5599 21.7395 17.9799C21.7395 18.3899 21.4095 18.7299 20.9895 18.7299L16.3195 18.7499C16.3295 18.7499 16.3195 18.7499 16.3195 18.7499Z" fill="#292D32"/>
  <path d="M20.9995 6.76999C20.8095 6.76999 20.6195 6.69996 20.4695 6.54996L18.4695 4.54996C18.1795 4.25996 18.1795 3.77996 18.4695 3.48996C18.7595 3.19996 19.2395 3.19996 19.5295 3.48996L21.5295 5.48996C21.8195 5.77996 21.8195 6.25996 21.5295 6.54996C21.3795 6.69996 21.1895 6.76999 20.9995 6.76999Z" fill="#292D32"/>
</svg>

<svg viewBox="0 0 24 24" fill="none" xmlns="http://www.w3.org/2000/svg" height="1em" width="1em">
  <path d="M5.56 18.74h-.02l-2.55-.01c-.41 0-.75-.34-.75-.75s.34-.75.75-.75l2.55.01h.01c.65 0 1.26-.32 1.62-.87l6.39-9.58c.64-.96 1.71-1.54 2.87-1.54h.02l4.55.02c.41 0 .75.34.75.75s-.34.75-.75.75l-4.55-.02h-.01c-.65 0-1.26.32-1.62.87L8.43 17.2a3.42 3.42 0 0 1-2.87 1.54ZM19 20.73c-.19 0-.38-.07-.53-.22a.754.754 0 0 1 0-1.06l2-2c.29-.29.77-.29 1.06 0 .29.29.29.77 0 1.06l-2 2c-.15.15-.34.22-.53.22ZM8.89 9.38c-.23 0-.46-.11-.61-.31L7.2 7.57a1.99 1.99 0 0 0-1.59-.81L3 6.77c-.46-.01-.75-.33-.75-.75 0-.41.33-.75.75-.75l2.61-.01h.02c1.11 0 2.15.54 2.8 1.43l1.08 1.5c.24.34.17.8-.17 1.05-.14.09-.29.14-.45.14Z" fill="#292D32"/>
  <path d="M16.32 18.75c-1.06 0-2.08-.5-2.73-1.34l-1.22-1.57c-.25-.33-.19-.8.13-1.05.33-.25.8-.19 1.05.13l1.22 1.57c.37.48.96.72 1.55.76l4.67-.02a.749.749 0 1 1 0 1.5l-4.67.02c.01 0 0 0 0 0ZM21 6.77c-.19 0-.38-.07-.53-.22l-2-2a.754.754 0 0 1 0-1.06c.29-.29.77-.29 1.06 0l2 2c.29.29.29.77 0 1.06-.15.15-.34.22-.53.22Z" fill="#292D32"/>
</svg>
